material/.icons/material/tournament.svg

<svg xmlns="http://www.w3.org/2000/svg" viewBox="0 0 24 24"><path d="M2 2v2h5v4H2v2h5c1.11 0 2-.89 2-2V7h5v10H9v-1c0-1.11-.89-2-2-2H2v2h5v4H2v2h5c1.11 0 2-.89 2-2v-1h5c1.11 0 2-.89 2-2v-4h6v-2h-6V7c0-1.11-.89-2-2-2H9V4c0-1.11-.89-2-2-2H2z"/></svg>

<?xml version="1.0" encoding="UTF-8"?><!DOCTYPE svg PUBLIC "-//W3C//DTD SVG 1.1//EN" "http://www.w3.org/Graphics/SVG/1.1/DTD/svg11.dtd"><svg xmlns="http://www.w3.org/2000/svg" xmlns:xlink="http://www.w3.org/1999/xlink" version="1.1" id="mdi-tournament" width="24" height="24" viewBox="0 0 24 24"><path d="M2,2V4H7V8H2V10H7C8.11,10 9,9.11 9,8V7H14V17H9V16C9,14.89 8.11,14 7,14H2V16H7V20H2V22H7C8.11,22 9,21.11 9,20V19H14C15.11,19 16,18.11 16,17V13H22V11H16V7C16,5.89 15.11,5 14,5H9V4C9,2.89 8.11,2 7,2H2Z" /></svg>
